webapply/src/assets/icons/arrowDown.svg

<?xml version="1.0" encoding="UTF-8"?>
<svg width="32px" height="32px" viewBox="0 0 32 32" version="1.1" xmlns="http://www.w3.org/2000/svg" xmlns:xlink="http://www.w3.org/1999/xlink">
    <!-- Generator: Sketch 57.1 (83088) - https://sketch.com -->
    <title>Icon/ 32/ Arrow down/ Black@1x</title>
    <desc>Created with Sketch.</desc>
    <g id="Icon/-32/-Arrow-down/-Black" stroke="none" stroke-width="1" fill="none" fill-rule="evenodd">
        <path d="M19.7071068,10.7071068 C20.0976311,10.3165825 20.0976311,9.68341751 19.7071068,9.29289322 C19.3165825,8.90236893 18.6834175,8.90236893 18.2928932,9.29289322 L10.2928932,17.2928932 C9.90236893,17.6834175 9.90236893,18.3165825 10.2928932,18.7071068 L18.2928932,26.7071068 C18.6834175,27.0976311 19.3165825,27.0976311 19.7071068,26.7071068 C20.0976311,26.3165825 20.0976311,25.6834175 19.7071068,25.2928932 L12.4142136,18 L19.7071068,10.7071068 Z" id="Shape" fill="#373737" fill-rule="nonzero" transform="translate(15.000000, 18.000000) rotate(-90.000000) translate(-15.000000, -18.000000) "></path>
    </g>
</svg>

<svg version="1.1" viewBox="0 0 32 32" xmlns="http://www.w3.org/2000/svg">
  <g fill="none" fill-rule="evenodd">
    <path transform="translate(15 18) rotate(-90) translate(-15 -18)" d="m19.707 10.707c0.39052-0.39052 0.39052-1.0237 0-1.4142s-1.0237-0.39052-1.4142 0l-8 8c-0.39052 0.39052-0.39052 1.0237 0 1.4142l8 8c0.39052 0.39052 1.0237 0.39052 1.4142 0s0.39052-1.0237 0-1.4142l-7.2929-7.2929 7.2929-7.2929z" fill="#373737" fill-rule="nonzero"/>
  </g>
</svg>
